X: 18
T: The Glass Slipper
%C: Mr. Gray
%R: reel
B: Mr. Gray "24 Country Dances for the Year 1805" p.9 #2
S: http://folkopedia.efdss.org/images/9/92/ThompsGray_24_1805.PDF  2013-12-2
Z: 2013 John Chambers <jc:trillian.mit.edu>
M: C
L: 1/8
K: D
|:\
defd (cA)A2 | dBAG (FD)D2 |\
defd ceac | cBA^G A2A2 :|
|:\
A3g (fd)d2 | Aceg f>ga2 |\
bgfe fadf | egec d2d2 :|
% - - - - - - - - - - - - - - - - - - - - - - - - -
%%begintext align
%% Set & half right & left, D.o back again,
%% down the mid: up again, right & left at top.
%%endtext

%%sep 1 1 500
%%sep 1 1 500
